assets/img/docs.svg

<svg width="24" height="24" viewBox="0 0 24 24" fill="none" xmlns="http://www.w3.org/2000/svg">
<path d="M12 18.9141C12.6472 18.9141 13.1719 18.3894 13.1719 17.7422C13.1719 17.095 12.6472 16.5703 12 16.5703C11.3528 16.5703 10.8281 17.095 10.8281 17.7422C10.8281 18.3894 11.3528 18.9141 12 18.9141Z" fill="white" opacity="0.8"/>
<path d="M12 0C5.36794 0 0 5.36705 0 12C0 18.6321 5.36705 24 12 24C18.6321 24 24 18.633 24 12C24 5.36794 18.633 0 12 0ZM12 22.125C6.4042 22.125 1.875 17.5965 1.875 12C1.875 6.4042 6.40345 1.875 12 1.875C17.5958 1.875 22.125 6.40345 22.125 12C22.125 17.5958 17.5965 22.125 12 22.125Z" fill="white" opacity="0.8"/>
<path d="M12 6.02344C9.93225 6.02344 8.25 7.70569 8.25 9.77344C8.25 10.2912 8.66972 10.7109 9.1875 10.7109C9.70528 10.7109 10.125 10.2912 10.125 9.77344C10.125 8.73956 10.9661 7.89844 12 7.89844C13.0339 7.89844 13.875 8.73956 13.875 9.77344C13.875 10.8073 13.0339 11.6484 12 11.6484C11.4822 11.6484 11.0625 12.0682 11.0625 12.5859V14.9297C11.0625 15.4475 11.4822 15.8672 12 15.8672C12.5178 15.8672 12.9375 15.4475 12.9375 14.9297V13.4048C14.5531 12.9875 15.75 11.5176 15.75 9.77344C15.75 7.70569 14.0677 6.02344 12 6.02344Z" fill="white" opacity="0.8"/>
</svg>

<svg width="24" height="24" fill="none" xmlns="http://www.w3.org/2000/svg"><path d="M12 18.914a1.172 1.172 0 1 0 0-2.344 1.172 1.172 0 0 0 0 2.344Z" fill="#fff" opacity=".8"/><path d="M12 0C5.368 0 0 5.367 0 12c0 6.632 5.367 12 12 12 6.632 0 12-5.367 12-12 0-6.632-5.367-12-12-12Zm0 22.125A10.12 10.12 0 0 1 1.875 12 10.12 10.12 0 0 1 12 1.875 10.12 10.12 0 0 1 22.125 12 10.12 10.12 0 0 1 12 22.125Z" fill="#fff" opacity=".8"/><path d="M12 6.023a3.754 3.754 0 0 0-3.75 3.75.937.937 0 0 0 1.875 0c0-1.033.841-1.875 1.875-1.875s1.875.842 1.875 1.875A1.877 1.877 0 0 1 12 11.648a.938.938 0 0 0-.938.938v2.344a.937.937 0 1 0 1.876 0v-1.525a3.757 3.757 0 0 0 2.812-3.632A3.754 3.754 0 0 0 12 6.023Z" fill="#fff" opacity=".8"/></svg>
